X:1
T:Over the Ocean Wave
T:William Batchelder Bradbury
T:Over the Ocean Wave
T:Public Domain
T:Public Domain
C:William Batchelder Bradbury
Z:Public Domain
%%score ( 1 2 ) ( 3 4 )
L:1/8
M:3/4
K:A
V:1 treble 
V:2 treble 
V:3 bass 
V:4 bass 
V:1
 [Ec]3 [DB] [CA]2 | [FA]3 [EG] [DF]2 | [CE]2 [EA]2 [Ec]2 | [EB]4 z2 | [Ec]3 [DB] [CA]2 | %5
w: O- ver the|o- cean wave,|far, far a-|way,|There the poor|
w: Here in this|hap- py land|we have the|light|Shin- ing from|
w: Then, while the|mis- sion ships|glad tid- ings|bring,|List! as that|
 [FA]3 [EG] [DF]2 | [CE]2 [EA]2 [DB]2 | [CA]4 z2 || [GB]2 [Ac]2 [GB]2 | [GB]3 [EG] E2 | %10
w: hea- then live,|wait- ing for|day;|Grop- ing in|ig- no- rance,|
w: God’s own Word,|free, pure and|bright;|Shall we not|send to them|
w: hea- then band|joy- ful- ly|sing,|“O- ver the|o- cean wave,|
 E2 [EA]2 [Ec]2 | [EB]4 z2 | [GB]2 [Ac]2 [GB]2 | [GB]3 [EG] E2 | E2 [EA]2 [Ec]2 | [EB]4 z2 |] %16
w: as the night,|bless-|ed Bi- ble|to give them|light. * *||
w: bles to read,|ers,|and preach- ers,|and all that|need? * *||
w: see them come,|ing|the Bread of|Life, guid- ing|home.” * *||
V:2
 x6 | x6 | x6 | x6 | x6 | x6 | x6 | x6 || x6 | x4 E2 | E2 x4 | x6 | x6 | x4 E2 | E2 x4 | x6 |] %16
w: |||||||||dark|No|||the|||
w: |||||||||Bi-|Teach-|||they|||
w: |||||||||oh,|Bring-|||us|||
V:3
 [A,,A,]3 [A,,A,] [A,,A,]2 | [D,A,]3 [D,A,] [D,A,]2 | [A,,A,]2 [C,A,]2 [A,,A,]2 | [E,G,]4 z2 | %4
w: Refrain–Pi- ty them,|pi- ty them,|Christ- ians at|home,|
 [A,,A,]3 [A,,A,] [A,,A,]2 | [D,A,]3 [D,A,] [D,A,]2 | [A,,A,]2 [C,A,]2 E,2 | [A,,E,]4 z2 || %8
w: Haste with the|Bread of Life,|hast- en and||
 E,2 E,2 E,2 | E,3 E, E,2 | [E,G,]2 [C,A,]2 [A,,A,]2 | [E,G,]4 z2 | E,2 E,2 E,2 | E,3 E, E,2 | %14
w: ||||||
 [E,G,]2 [C,A,]2 [A,,A,]2 | [E,G,]4 z2 |] %16
w: ||
V:4
 x6 | x6 | x6 | x6 | x6 | x6 | x4 E,2 | x6 || x6 | x6 | x6 | x6 | x6 | x6 | x6 | x6 |] %16
w: ||||||come.||||||||||

